X:1
T:This Land is Your Land
M:4/4
L:1/8
K:C
 CD E| F2 F3 FC D| E2 E3 CC E| D2 D3 D/2D/2 CD| E2 E3 C/2C/2 DE| F2 F3 F/2F/2 CD|\
 E2 E6| D D2 CB, B,C D| C4- C||
